X:1
T:Relley
T:A Major                    Jacob French, 1789
T:Transcribed from  The New American Melody, 1789.
T:Isaac Watts, 1707 (Hymn 21, Book 1)              86. 86. (C. M.)
%%score [ 1 2 3 4 ]
L:1/8
Q:1/4=120
M:3/2
K:A
V:1 treble nm="Tr." snm="Tr."
V:2 treble nm="C." snm="C."
V:3 treble-8 nm="T." snm="T."
V:4 bass nm="B." snm="B."
V:1
 A4 | (A4 G4) F4 | A8 (3(A2 c2 e2) | (d4 c4) B4 | c8 e4 | (e4 d4) c4 | (c4 d4) e4 | e8 c4 | B8 A4 | %9
 A8 c4 | (c4 B4) A4 | G8 (3(A2 B2 c2) | B8 A4 | A8 G4 | A8 c4 ||[M:2/2][Q:1/4=100] A2 BG A2 d2 | %16
 c2 B2 c2 B2 | A2 ed c2 B2 | B6 A2 | B2 c2 c2 A2 | A2 d2 c2 B2 | A2 A2 e2 ed | c8 |: z4 c4 | %24
 c2 c2 d2 d2 | e2 fg a2 gf | e2 e2 Ad cA | B6 c>B | A2 B2 c>e A>c | d<B c<A G2 A2 | A<c de f<d cB | %31
 c8 :| %32
V:2
"_Lo!   what       a    glo  –  rious        sight    ap – pears   To    our       be  –  lie     –   ving   eyes!  The earth  and  sea   are   passed        a  – way,   And ____  the    old   rol  – ling   skies.  From" E4 | %1
 E8 C4 | F8 E4 | F8 E4 | E8 E4 | (E4 B4) G4 | (A2 E2 F4) A4 | G8 A4 | G8 F4 | F8 A4 | %10
 (A3 G F4) E4 | E8 (E2 A2) | G8 F4 | F8 E4 | E8 A4 || %15
[M:2/2]"_the third heav'n, where God resides, That ho–ly,  hap – py  place,   The new Je–ru–sa–lem comes down,  Adorned  with  shining  grace.              How   long,  dear  Savior!   O  how  long   Shall" E2 E2 F2 A2 | %16
 G2 E2 E2 E2 | E2 E2 A2 F2 | G6 EF | G2 G2 A2 E2 | F2 B2 G2 E2 | C2 F2 E2 E2 | E8 |: z4 E4 | %24
 A2 A2 A2 A2 | A2 B2 E2 E2 | %26
"_this bright hour de –  lay?     Fly        swif – ter  round,    ye          wheels     of      time,   And     bring    the      wel  –   come     day." E2 E2 A2 F2 | %27
 G6 A2 | A<F F2 G<E A<G | F2 E2 E2 ED | C<E F<A F2 E2 | E8 :| %32
V:3
 A4 | (c4 B4) A4 | d8 c4 | (B4 A4) G4 | A8 B4 | (c4 f4) e4 | (c2 A2 d4) c4 | B8 c4 | e8 c4 | %9
 d8 e4 | (A4 d4) c4 | B8 c4 | e8 c4 | (d4 c4) B4 | A8 e4 ||[M:2/2] c2 c2 c2 f2 | e2 E2 A2 B2 | %17
 c2 B2 c2 d2 | e6 cd | e2 e2 e2 c2 | d2 f2 e2 c2 | A2 d2 c2 B2 | A8 |: z4 A4 | e2 e2 f2 f2 | %25
 e2 d2 c2 B2 | A2 B2 cB cd | e6 e2 | f<d d2 e<c A2 | d2 c>e B2 cd | e<c A2 d<B AG | A8 :| %32
V:4
 [A,,A,]4 | ([A,,A,]4 E,4) F,4 | D,8 [A,,A,]4 | D,8 E,4 | A,,8 E,4 | ([A,,A,]4 [B,,B,]4) [C,C]4 | %6
 ([A,,A,]2 [C,C]2) [B,,B,]4 [A,,A,]4 | E,8 [A,,A,]4 | E,8 F,4 | D,8 A,4 | (F,3 E, D,4) A,,4 | %11
 E,8 [A,,A,]4 | E,8 F,4 | D,8 E,4 | A,,8 [A,,A,]4 ||[M:2/2] A,2 G,2 F,2 D,2 | E,2 E,2 A,,2 E,2 | %17
 [A,,A,]2 [G,,G,]2 [A,,A,]2 [B,,B,]2 | E,6 [A,,A,]2 | E,2 C,2 A,,2 A,,2 | D,2 B,,2 C,2 E,2 | %21
 F,2 D,2 E,2 E,2 | A,,8 |: z4 [A,,A,]4 | [A,,A,]2 [A,,A,]2 [D,D]2 [D,D]2 | %25
 [C,C]2 [B,,B,]2 [A,,A,]2 E,2 | A,2 G,2 F,2 F,2 | E,6 A,,2 | D,2 D,2 C,2 D,C, | %29
 B,,2 A,,2 E,2 A,,B,, | C,<A,, D,C, B,,2 E,2 | %31
"^_____________________________________\nEdited by B. C. Johnston, 2018. These words \nsubstituted for the original words, \nNew Version Psalm 83, stanza 3." A,,8 :| %32

